X:1
T:Salerno, 77.77 D
T:Salerno, 77.77 D
T:James McGranahan, 1891
T:Public Domain Courtesy of the Cyber Hymnal™
C:James McGranahan, 1891
Z:Public Domain
Z:Courtesy of the Cyber Hymnal™
%%score ( 1 2 ) ( 3 4 )
L:1/8
Q:1/4=93
M:3/4
K:C
V:1 treble 
V:2 treble 
V:3 bass 
V:4 bass 
V:1
 G>G | c3 [Ec] [GB]>[FA] | [EG]4 [FA]>[EG] | [DF]3 [CE] [DF]>[B,G] | [CE]4 E>E | %5
 A3 [EA] [Ec]>[Ac] | [^GB]4 [Ge]>[Gd] | [Ac]3 [^Fd] [Fc]>[FA] | G4 G>B | %9
 (z2 [Gd]>)[DB] [DA]>[DG] x2 | e6 e>d | (z2 [Fc]>)[Fd] [Fc]>[FA] x2 | G6 [EG]>[EG] | %13
 [FA]2 [GB]2 [Gc]2 [Gd]2 | ([Ge]4 !fermata![Af]2) [Ac]>[FA] | [EG]2 [Ec] z [Ec]3 z | %16
 ([FB]3 [Ec]) !fermata![Ec]2 |] %17
V:2
 G>G | c3 x3 | x6 | x6 | x4 E>E | A3 x3 | x6 | x6 | G4 x2 | d4- G3/2 G/ x2 | (G>G G>G G2) x2 | %11
 c4- E3/2 E/ x2 | (E>E F>F E2) x2 | x8 | x8 | x8 | x6 |] %17
V:3
 G,>G, | C3 [C,G,] [C,G,]>[C,C] | [C,C]4 [C,C]>[C,C] | [G,,B,]3 [G,,G,] [G,,G,]>[G,,G,] | %4
 [C,G,]4 E,>E, | A,3 [A,,C] [A,,A,]>[A,,A,] | [E,B,]4 [E,B,]>[E,B,] | [A,C]3 [D,A,] [D,A,]>[D,C] | %8
 [G,B,]4 z2 | z2 ([G,B,]>[G,B,] [G,B,]>)[G,D][G,C]>[F,B,] | C6 z2 | %11
 z2 ([A,C]>[A,C] [F,A,]>)[F,A,][F,A,]>[F,C] | ([C,C]>[C,C][B,,D]>[B,,D] [C,C]2) [C,C]>[C,C] | %13
 [F,C]2 [F,D]2 [E,C]2 [G,B,]2 | C4 [F,C]2 [F,C]>[F,C] | [G,C]2 [G,C] z [G,C]3 z | %16
 (D3 G,) !fermata![C,G,]2 |] %17
V:4
 G,>G, | C3 x3 | x6 | x6 | x4 E,>E, | A,3 x3 | x6 | x6 | x6 | x8 | (C,>C,E,>G, C2) x2 | x8 | x8 | %13
 x8 | C_B,A,G, x4 | x8 | G,4 x2 |] %17

